Simply-Cyan-Circles/scalable/apps/preferences-system-windows-move.svg

<svg xmlns="http://www.w3.org/2000/svg" width="48" height="48" viewBox="0 0 12.7 12.7"><path d="M6.34.07a6.29 6.29 0 0 0-6.29 6.3 6.29 6.29 0 0 0 6.3 6.28 6.29 6.29 0 0 0 6.28-6.29A6.29 6.29 0 0 0 6.34.07zM6.32 1l.01.01a5.4 5.4 0 0 1 5.4 5.4 5.4 5.4 0 0 1-5.4 5.41 5.4 5.4 0 0 1-5.41-5.4A5.4 5.4 0 0 1 6.32 1zM2.88 2.88a.5.5 0 0 0-.49.5v5.94a.5.5 0 0 0 .5.5h6.93a.5.5 0 0 0 .49-.5V3.4a.5.5 0 0 0-.5-.5H2.89zM2.9 4.5h6.92c.07 0 .11.06.11.13v4.69a.13.13 0 0 1-.11.13H2.9a.13.13 0 0 1-.15-.12v-4.7c0-.07.08-.13.15-.13zm3.45.6l-.53 1.07h1.06L6.35 5.1zm-.8 1.33l-1.05.53 1.06.53V6.42zm1.6 0v1.06l1.05-.53-1.06-.53zm-.8.27a.26.26 0 1 0 0 .52.26.26 0 1 0 0-.52zm-.53 1.05l.53 1.06.53-1.06H5.82z" fill="#5beedc"/></svg>

<?xml version="1.0" encoding="UTF-8" standalone="no"?>
<svg
   xmlns:dc="http://purl.org/dc/elements/1.1/"
   xmlns:cc="http://creativecommons.org/ns#"
   xmlns:rdf="http://www.w3.org/1999/02/22-rdf-syntax-ns#"
   xmlns:svg="http://www.w3.org/2000/svg"
   xmlns="http://www.w3.org/2000/svg"
   xmlns:sodipodi="http://sodipodi.sourceforge.net/DTD/sodipodi-0.dtd"
   xmlns:inkscape="http://www.inkscape.org/namespaces/inkscape"
   width="48"
   height="48"
   viewBox="0 0 12.7 12.7"
   version="1.1"
   id="svg4"
   sodipodi:docname="preferences-system-windows-move.svg"
   inkscape:version="0.92.4 (5da689c313, 2019-01-14)">
  <metadata
     id="metadata10">
    <rdf:RDF>
      <cc:Work
         rdf:about="">
        <dc:format>image/svg+xml</dc:format>
        <dc:type
           rdf:resource="http://purl.org/dc/dcmitype/StillImage" />
        <dc:title></dc:title>
      </cc:Work>
    </rdf:RDF>
  </metadata>
  <defs
     id="defs8" />
  <sodipodi:namedview
     pagecolor="#ffffff"
     bordercolor="#666666"
     borderopacity="1"
     objecttolerance="10"
     gridtolerance="10"
     guidetolerance="10"
     inkscape:pageopacity="0"
     inkscape:pageshadow="2"
     inkscape:window-width="1087"
     inkscape:window-height="480"
     id="namedview6"
     showgrid="false"
     inkscape:zoom="4.9166667"
     inkscape:cx="2.1355932"
     inkscape:cy="24"
     inkscape:window-x="0"
     inkscape:window-y="25"
     inkscape:window-maximized="0"
     inkscape:current-layer="svg4" />
  <path
     d="M 6.34,0.07 A 6.29,6.29 0 0 0 0.05,6.37 6.29,6.29 0 0 0 6.35,12.65 6.29,6.29 0 0 0 12.63,6.36 6.29,6.29 0 0 0 6.34,0.07 Z M 6.32,1 6.33,1.01 a 5.4,5.4 0 0 1 5.4,5.4 5.4,5.4 0 0 1 -5.4,5.41 A 5.4,5.4 0 0 1 0.92,6.42 5.4,5.4 0 0 1 6.32,1 Z M 2.88,2.88 a 0.5,0.5 0 0 0 -0.49,0.5 v 5.94 a 0.5,0.5 0 0 0 0.5,0.5 h 6.93 a 0.5,0.5 0 0 0 0.49,-0.5 V 3.4 A 0.5,0.5 0 0 0 9.81,2.9 H 2.89 Z M 2.9,4.5 h 6.92 c 0.07,0 0.11,0.06 0.11,0.13 V 9.32 A 0.13,0.13 0 0 1 9.82,9.45 H 2.9 A 0.13,0.13 0 0 1 2.75,9.33 V 4.63 C 2.75,4.56 2.83,4.5 2.9,4.5 Z M 6.35,5.1 5.82,6.17 H 6.88 Z M 5.55,6.43 4.5,6.96 5.56,7.49 V 6.42 Z m 1.6,0 V 7.49 L 8.2,6.96 7.14,6.43 Z M 6.35,6.7 a 0.26,0.26 0 1 0 0,0.52 0.26,0.26 0 1 0 0,-0.52 z M 5.82,7.75 6.35,8.81 6.88,7.75 Z"
     id="path2"
     inkscape:connector-curvature="0"
     style="fill:#5beedc" />
</svg>
